src/assets/icons/test.svg

<?xml version="1.0" encoding="UTF-8"?>
<svg width="60px" height="60px" viewBox="0 0 60 60" version="1.1" xmlns="http://www.w3.org/2000/svg" xmlns:xlink="http://www.w3.org/1999/xlink">
    <!-- Generator: Sketch 61 (89581) - https://sketch.com -->
    <title>Icon1@3x</title>
    <desc>Created with Sketch.</desc>
    <g id="页面-2" stroke="none" stroke-width="1" fill="none" fill-rule="evenodd">
        <g id="系统首页" transform="translate(-419.000000, -136.000000)" fill="#0593FF">
            <g id="1" transform="translate(234.000000, 120.000000)">
                <g id="Total-Users">
                    <g id="Icon1" transform="translate(185.000000, 16.000000)">
                        <path d="M23,60 C10.2974508,60 1.55561363e-15,49.7025492 0,37 L0,23 C-1.55561363e-15,10.2974508 10.2974508,2.33342044e-15 23,0 L37,0 C49.7025492,-2.33342044e-15 60,10.2974508 60,23 L60,37 C60,49.7025492 49.7025492,60 37,60 L23,60 Z" id="Circle-2" opacity="0.209999993"></path>
                        <g id="Group" transform="translate(14.000000, 18.000000)" fill-rule="nonzero">
                            <path d="M24,6.66666667 C26.209139,6.66666667 28,8.45752767 28,10.6666667 C28,12.8758057 26.209139,14.6666667 24,14.6666667 C21.790861,14.6666667 20,12.8758057 20,10.6666667 C20,8.45752767 21.790861,6.66666667 24,6.66666667 Z M12,0 C14.9455187,0 17.3333333,2.38781467 17.3333333,5.33333333 C17.3333333,8.278852 14.9455187,10.6666667 12,10.6666667 C9.05448133,10.6666667 6.66666667,8.278852 6.66666667,5.33333333 C6.66666667,2.38781467 9.05448133,0 12,0 Z" id="Combined-Shape" opacity="0.587820871"></path>
                            <path d="M23.4686027,16.0012776 L23.3172917,16 C27.927838,16 31.7158139,18.2931929 31.9979916,23.2 C32.0092328,23.3954741 31.9979916,24 31.2745999,24 L26.1333333,24 L26.1333333,24 C26.1333333,20.9989578 25.1418595,18.2294867 23.4686027,16.0012776 Z M11.9777884,13.3333333 C18.3616218,13.3333333 23.6065116,16.3909238 23.9972191,22.9333333 C24.0127839,23.1939654 23.9972191,24 22.9955999,24 L0.97000297,24 L0.97000297,24 C0.635616207,24 -0.027282334,23.2789066 0.000868912387,22.932274 C0.517678033,16.5686878 5.6825498,13.3333333 11.9777884,13.3333333 Z" id="Combined-Shape"></path>
                        </g>
                    </g>
                </g>
            </g>
        </g>
    </g>
</svg>

<svg width="60" height="60" xmlns="http://www.w3.org/2000/svg"><g fill="#0593FF" fill-rule="evenodd"><path d="M23 60C10.297 60 0 49.703 0 37V23C0 10.297 10.297 0 23 0h14c12.703 0 23 10.297 23 23v14c0 12.703-10.297 23-23 23H23z" opacity=".21"/><g fill-rule="nonzero"><path d="M24 6.667a4 4 0 110 8 4 4 0 010-8zM12 0a5.333 5.333 0 110 10.667A5.333 5.333 0 0112 0z" opacity=".588" transform="translate(14 18)"/><path d="M23.469 16.001L23.317 16c4.61 0 8.399 2.293 8.681 7.2.011.195 0 .8-.723.8h-5.142c0-3.001-.991-5.77-2.664-7.999zm-11.491-2.668c6.384 0 11.629 3.058 12.02 9.6.015.261 0 1.067-1.002 1.067H.97c-.334 0-.997-.721-.97-1.068.518-6.363 5.683-9.599 11.978-9.599z" transform="translate(14 18)"/></g></g></svg>
